packages/icons/svg/Fill/bluetooth.svg

<svg width="24" height="24" viewBox="0 0 24 24" fill="none" xmlns="http://www.w3.org/2000/svg">
<g id="Icon/Fill/bluetooth">
<path id="Mask" fill-rule="evenodd" clip-rule="evenodd" d="M13 18.2495V14.1785L15.467 16.5575L13 18.2495ZM13 5.76048L15.497 7.49348L13 9.85048V5.76048ZM13.629 12.0065L17.644 8.21648C17.895 7.97848 18.023 7.64648 17.997 7.30448C17.97 6.96148 17.792 6.65148 17.507 6.45448L12.833 3.21048C12.474 2.95848 12.008 2.93048 11.618 3.13348C11.237 3.33248 11 3.72048 11 4.14548V10.3515L7.80696 6.37448C7.45996 5.94248 6.83196 5.87448 6.40096 6.22048C5.96996 6.56548 5.90096 7.19548 6.24696 7.62548L9.72096 11.9525L6.21596 16.3795C5.87296 16.8125 5.94596 17.4405 6.37896 17.7845C6.56296 17.9295 6.78196 17.9995 6.99996 17.9995C7.29396 17.9995 7.58596 17.8705 7.78396 17.6205L11 13.5595V19.8535C11 20.2775 11.235 20.6645 11.613 20.8645C11.787 20.9555 11.975 21.0005 12.163 21.0005C12.395 21.0005 12.626 20.9315 12.827 20.7945L17.469 17.6085C17.754 17.4125 17.934 17.1035 17.961 16.7615C17.989 16.4205 17.863 16.0885 17.616 15.8515L13.629 12.0065Z" fill="#000000"/>
</g>
</svg>

<svg fill="none" height="24" viewBox="0 0 24 24" width="24" xmlns="http://www.w3.org/2000/svg"><path clip-rule="evenodd" d="m13 18.2494v-4.071l2.467 2.379zm0-12.48911 2.497 1.733-2.497 2.357zm.629 6.24611 4.015-3.78998c.251-.238.379-.57.353-.912-.027-.343-.205-.653-.49-.85l-4.674-3.244c-.359-.252-.825-.28-1.215-.077-.381.199-.618.587-.618 1.012v6.20598l-3.19301-3.97698c-.347-.432-.975-.5-1.406-.154-.431.345-.5.975-.154 1.405l3.474 4.32698-3.505 4.427c-.343.433-.27 1.061.163 1.405.184.145.403.215.621.215.294 0 .586-.129.784-.379l3.21601-4.061v6.294c0 .424.235.811.613 1.011.174.091.362.136.55.136.232 0 .463-.069.664-.206l4.642-3.186c.285-.196.465-.505.492-.847.028-.341-.098-.673-.345-.91z" fill="#6b7280" fill-rule="evenodd"/></svg>
